X:1
T:Goldberg Variations: Variation X
T:BWV 988
T:J. S. Bach
%%score { ( 1 4 ) | ( 2 3 ) }
L:1/8
M:2/2
K:G
V:1 treble nm="Harp"
V:4 treble 
V:2 bass 
V:3 bass 
V:1
 z8 | z8 | z8 | z8 | z8 | z8 | z8 | z8 | g/4f/4g/- g3 a/4g/4a/4g/4a/4g/4a/4g/4 a/4g/4a/4g/4 f/g/ | %9
 a2 f2 d2 f2 | B2 e2 E2 d2 | d/4^c/4d/4c/4d/4c/4d/4c/4 Bc ABcA | d2 D2 d4- | d2 D2 d4- | d4 ^c4 | %15
 d8 | z8 | z8 | z8 | z8 | z8 | z8 | z8 | z8 | %24
 g/4f/4g/- g3 a/4g/4a/4g/4a/4g/4a/4g/4 a/4g/4a/4g/4 f/g/ | a2 f2 d2 f2 | B2 e2 E2 d2 | %27
 d/4^c/4d/4c/4d/4c/4d/4c/4 Bc ABcA | d2 D2 d4- | d2 D2 d4- | d4 ^c4 | d8 | %32
 f/4e/4f/- f3 g/4f/4g/4f/4g/4f/4g/4f/4 g/4f/4g/4f/4 e/f/ | g2 d2 B2 d2 | c2 =f2 =F2 e2 | %35
 e/4^d/4e/4d/4e/4d/4e/4d/4 ^cd BcdB | e2 E2 e4- | e2 E2 e4- | e4 ^d4 | e4- ed^cB | A2 g4 =fe | %41
 =f4- f2 ed | e4- e2 fg | abga f2 a2- | a2 gf g2 B2- | B2 AB c4- | c2 B2 A4 | G8 | %48
 f/4e/4f/- f3 g/4f/4g/4f/4g/4f/4g/4f/4 g/4f/4g/4f/4 e/f/ | g2 d2 B2 d2 | c2 =f2 =F2 e2 | %51
 e/4^d/4e/4d/4e/4d/4e/4d/4 ^cd BcdB | e2 E2 e4- | e2 E2 e4- | e4 ^d4 | e4- ed^cB | A2 g4 =fe | %57
 =f4- f2 ed | e4- e2 fg | abga f2 a2- | a2 gf g2 B2- | B2 AB c4- | c2 B2 A4 | !fermata!G8 |] %64
V:2
 G,/4F,/4G,/- G,3 A,/4G,/4A,/4G,/4A,/4G,/4A,/4G,/4 A,/4G,/4A,/4G,/4 F,/G,/ | A,2 F,2 D,2 F,2 | %2
 E,2 A,2 A,,2 G,2 | G,/4F,/4G,/4F,/4G,/4F,/4G,/4F,/4 E,F, D,E,C,D, | %4
 D/4C/4D/- D3 E/4D/4E/4D/4E/4D/4E/4D/4 E/4D/4E/4D/4 C/D/ | E2 C2 A,2 C2 | A,2 D2 D,2 C2 | %7
 C/4B,/4C/4B,/4C/4B,/4C/4B,/4 C/4B,/4 A,/B, G,B,A,C | B,A, B,2 E4- | E2 A,2 D4- | D2 B,2 E4- | %11
 E2 D2 ^C2 E2 | A,B,A,G, F,4 | G,4 z4 | z2 E,2 A,4- | A,A,G,A, F,4 | %16
 G,/4F,/4G,/- G,3 A,/4G,/4A,/4G,/4A,/4G,/4A,/4G,/4 A,/4G,/4A,/4G,/4 F,/G,/ | A,2 F,2 D,2 F,2 | %18
 E,2 A,2 A,,2 G,2 | G,/4F,/4G,/4F,/4G,/4F,/4G,/4F,/4 E,F, D,E,C,D, | %20
 D/4C/4D/- D3 E/4D/4E/4D/4E/4D/4E/4D/4 E/4D/4E/4D/4 C/D/ | E2 C2 A,2 C2 | A,2 D2 D,2 C2 | %23
 C/4B,/4C/4B,/4C/4B,/4C/4B,/4 C/4B,/4 A,/B, G,B,A,C | B,A, B,2 E4- | E2 A,2 D4- | D2 B,2 E4- | %27
 E2 D2 ^C2 E2 | A,B,A,G, F,4 | G,4 z4 | z2 E,2 A,4- | A,A,G,A, F,4 | D,E,F,G, A,2 C,2 | %33
 B,,D,E,F, G,A, B,2- | B,2 A,^G, A,4- | A,2 F,2 B,2 A,2 | G,A,B,A, G,F,G,E, | A,B,CB, A,G,A,F, | %38
 B,A,G,A, B,A,B,B,, | E,B,,A,,B,, G,,F,,G,,E,, | %40
 ^C,/4B,,/4C,/- C,3 D,/4C,/4D,/4C,/4D,/4C,/4D,/4C,/4 D,/4C,/4D,/4C,/4 B,,/C,/ | %41
 D,2 B,,2 G,,2 B,,2 | C,2 E,2 A,,2 G,2 | G,/4F,/4G,/4F,/4G,/4F,/4G,/4F,/4 E,F, D,E,F,D, | %44
 D4 E/4D/4E/4D/4E/4D/4E/4D/4 E/4D/4E/4D/4 C/D/ | E2 C2 A,2 C2 | A,2 D2 D,2 C2 | %47
 C/4B,/4C/4B,/4C/4B,/4C/4B,/4 A,B, G,4 | D,E,F,G, A,2 C,2 | B,,D,E,F, G,A, B,2- | B,2 A,^G, A,4- | %51
 A,2 F,2 B,2 A,2 | G,A,B,A, G,F,G,E, | A,B,CB, A,G,A,F, | B,A,G,A, B,A,B,B,, | %55
 E,B,,A,,B,, G,,F,,G,,E,, | %56
 ^C,/4B,,/4C,/- C,3 D,/4C,/4D,/4C,/4D,/4C,/4D,/4C,/4 D,/4C,/4D,/4C,/4 B,,/C,/ | %57
 D,2 B,,2 G,,2 B,,2 | C,2 E,2 A,,2 G,2 | G,/4F,/4G,/4F,/4G,/4F,/4G,/4F,/4 E,F, D,E,F,D, | %60
 D4 E/4D/4E/4D/4E/4D/4E/4D/4 E/4D/4E/4D/4 C/D/ | E2 C2 A,2 C2 | A,2 D2 D,2 C2 | %63
 C/4B,/4C/4B,/4C/4B,/4C/4B,/4 A,B, G,4 |] %64
V:3
 x8 | x8 | x8 | x8 | B,,D,E,F, G,2 B,,2 | C,4 z2 A,,2 | x8 | G,,2 D,2 B,,2 D,2 | G,4 z2 E,2 | %9
 F,4 z2 D,2 | G,4 z2 E,2 | A,4 z2 G,2 | F,4 z2 D,2 | G,,2 B,,2 G,,2 E,,2 | A,,4 z2 A,,2 | D,8 | %16
 x8 | x8 | x8 | x8 | B,,D,E,F, G,2 B,,2 | C,4 z2 A,,2 | x8 | G,,2 D,2 B,,2 D,2 | G,4 z2 E,2 | %25
 F,4 z2 D,2 | G,4 z2 E,2 | A,4 z2 G,2 | F,4 z2 D,2 | G,,2 B,,2 G,,2 E,,2 | A,,4 z2 A,,2 | D,8 | %32
 x8 | x8 | x8 | x8 | x8 | x8 | x8 | x8 | x8 | x8 | x8 | x8 | G,2 A,2 B,2 G,2 | D,4 z2 A,2 | %46
 D,4 z2 D,2 | G,4 G,,4 | x8 | x8 | x8 | x8 | x8 | x8 | x8 | x8 | x8 | x8 | x8 | x8 | %60
 G,2 A,2 B,2 G,2 | D,4 z2 A,2 | D,4 z2 D,2 | G,4 !fermata!G,,4 |] %64
V:4
 x8 | x8 | x8 | x8 | x8 | x8 | x8 | x8 | x8 | x8 | x8 | x8 | %12
 A4 B/4A/4B/4A/4B/4A/4B/4A/4 B/4A/4B/4A/4 G/A/ | B2 G2 E2 G2 | E2 A2 A,2 G2 | %15
 G/4F/4G/4F/4G/4F/4G/4F/4 EF D4 | x8 | x8 | x8 | x8 | x8 | x8 | x8 | x8 | x8 | x8 | x8 | x8 | %28
 A4 B/4A/4B/4A/4B/4A/4B/4A/4 B/4A/4B/4A/4 G/A/ | B2 G2 E2 G2 | E2 A2 A,2 G2 | %31
 G/4F/4G/4F/4G/4F/4G/4F/4 EF D4 | x8 | x8 | x8 | x8 | %36
 B4 c/4B/4c/4B/4c/4B/4c/4B/4 c/4B/4c/4B/4 A/B/ | c2 A2 F2 A2 | F2 B2 B,2 A2 | %39
 A/4G/4A/4G/4A/4G/4A/4G/4 FG E4- | E2 z2 A4- | A2 d2 B2 G2- | G2 cB c4- | c6 c2 | B4 z2 G2 | %45
 E6 AG | F2 G2- G2 F2 | x8 | x8 | x8 | x8 | x8 | B4 c/4B/4c/4B/4c/4B/4c/4B/4 c/4B/4c/4B/4 A/B/ | %53
 c2 A2 F2 A2 | F2 B2 B,2 A2 | A/4G/4A/4G/4A/4G/4A/4G/4 FG E4- | E2 z2 A4- | A2 d2 B2 G2- | %58
 G2 cB c4- | c6 c2 | B4 z2 G2 | E6 AG | F2 G2- G2 F2 | x8 |] %64

